X:13240
T:Plimouth Jigg
B:Walsh
M:6/4
L:1/8
N:
K:D
d2| f2 a2 A2 d2 f2 d2| B4 g2 e4 d2| c2 e4 a4 f2| d2 B2 g2 e2 c2 A2 |\
F2 A2 d2 A2 a2 f2| d4 A2 D4:: A2| d3 c B2 AG F2 A2| dc B2 g2 e4 d2 |\
a6 A4 de| f2 de f2 g2 ef g2| a2 fg a2 A2 d2 c2| d6 D6:|


